project/img/advantares-icon/icon-4.svg

<svg width="40" height="40" viewBox="0 0 40 40" fill="none" xmlns="http://www.w3.org/2000/svg">
<path d="M20 40C31.0457 40 40 31.0457 40 20C40 8.9543 31.0457 0 20 0C8.9543 0 0 8.9543 0 20C0 31.0457 8.9543 40 20 40Z" fill="#84DBFF"/>
<path d="M29.9167 7.96045H10.083V32.0397H23.8652L29.9167 25.9803V7.96045Z" fill="white"/>
<path d="M21.7108 12.0158L21.7504 11.8574C21.7583 11.7941 21.7662 11.7228 21.7662 11.6594C21.7662 10.804 20.99 10.1069 20.0316 10.1069C19.0732 10.1069 18.2969 10.804 18.2969 11.6594C18.2969 11.7307 18.3049 11.7941 18.3128 11.8574L18.3445 12.0158C18.194 12.0792 18.091 12.3089 18.1227 12.5703C18.1464 12.8713 18.3286 13.101 18.5108 13.0852C18.5346 13.0852 18.5504 13.0772 18.5662 13.0693L19.0573 15.3584H20.9346L21.4653 13.0455C21.4969 13.0614 21.5207 13.0772 21.5603 13.0772C21.7504 13.0931 21.9247 12.8634 21.9484 12.5624C21.9801 12.3089 21.8771 12.0713 21.7108 12.0158Z" fill="#324A5E"/>
<path d="M19.9999 15.0415L18.8118 14.2178L19.9999 17.8693L21.1959 14.2178L19.9999 15.0415Z" fill="#CED5E0"/>
<path d="M20.4595 15.8891L20.0001 15.4376L19.5486 15.8891L19.8971 16.2376L19.6674 17.5366L20.0001 17.8693L20.3327 17.5366L20.103 16.2455L20.4595 15.8891Z" fill="white"/>
<path d="M23.1922 15.2792C21.917 15.1366 21.1962 14.2178 21.1962 14.2178L20.0081 17.8693H24.3011C24.2932 17.8693 24.4675 15.4217 23.1922 15.2792Z" fill="#FF7058"/>
<path d="M18.804 14.2178C18.804 14.2178 18.0832 15.1287 16.8079 15.2792C15.5327 15.4217 15.699 17.8693 15.699 17.8693H20L18.804 14.2178Z" fill="#FF7058"/>
<path d="M27.3267 20.2377H12.6812V21.2357H27.3267V20.2377Z" fill="#CED5E0"/>
<path d="M27.3267 22.9546H12.6812V23.9526H27.3267V22.9546Z" fill="#CED5E0"/>
<path d="M21.1326 25.6633H12.6812V26.6614H21.1326V25.6633Z" fill="#CED5E0"/>
<path d="M19.7465 28.3723H12.6812V29.3703H19.7465V28.3723Z" fill="#CED5E0"/>
<path d="M23.8652 32.0396L29.9167 25.9802H23.8652V32.0396Z" fill="#ACB3BA"/>
</svg>

<svg width="40" height="40" fill="none" xmlns="http://www.w3.org/2000/svg"><path d="M20 40c11.046 0 20-8.954 20-20S31.046 0 20 0 0 8.954 0 20s8.954 20 20 20z" fill="#84DBFF"/><path d="M29.917 7.96H10.083v24.08h13.782l6.052-6.06V7.96z" fill="#fff"/><path d="M21.71 12.016l.04-.159a1.67 1.67 0 00.016-.198c0-.855-.776-1.552-1.734-1.552-.959 0-1.735.697-1.735 1.552 0 .072.008.135.016.198l.032.159c-.151.063-.254.293-.222.554.023.301.206.531.388.515.024 0 .04-.008.055-.016l.491 2.29h1.878l.53-2.313c.032.015.056.031.095.031.19.016.365-.214.388-.515.032-.253-.07-.49-.237-.546z" fill="#324A5E"/><path d="M20 15.041l-1.188-.823L20 17.869l1.196-3.651L20 15.04z" fill="#CED5E0"/><path d="M20.46 15.89l-.46-.452-.451.451.348.349-.23 1.299.333.332.333-.332-.23-1.291.356-.357z" fill="#fff"/><path d="M23.192 15.28c-1.275-.143-1.996-1.062-1.996-1.062l-1.188 3.651h4.293c-.008 0 .167-2.447-1.109-2.59zm-4.388-1.062s-.72.91-1.996 1.061c-1.275.143-1.109 2.59-1.109 2.59H20l-1.196-3.651z" fill="#FF7058"/><path d="M27.327 20.238H12.68v.998h14.646v-.998zm0 2.717H12.68v.998h14.646v-.998zm-6.194 2.708H12.68v.998h8.452v-.998zm-1.386 2.709H12.68v.998h7.066v-.998z" fill="#CED5E0"/><path d="M23.865 32.04l6.052-6.06h-6.052v6.06z" fill="#ACB3BA"/></svg>
